img/manaSymbols/outline/outlines.svg

﻿<?xml version="1.0" encoding="utf-8"?>
<svg width="660" height="660" viewBox="0 0 660 660" version="1.1" xmlns="http://www.w3.org/2000/svg" xml:space="preserve" style="fill-rule: evenodd; clip-rule: evenodd; stroke-linejoin: round; stroke-miterlimit: 2;" preserveAspectRatio="xMidYMid meet" zoomAndPan="magnify" contentScriptType="application/ecmascript" contentStyleType="text/css">
  <path d="M300-30C117.868-30-30 117.868-30 300s147.868 330 330 330 330-147.868 330-330S482.132-30 300-30zm0 30c165.575 0 300 134.425 300 300S465.575 600 300 600 0 465.575 0 300 134.425 0 300 0z" style="fill: white;" transform="matrix(1,0,0,1,30,30)" />
  <path id="polygon491" d="m287.69 495.642 42.307-73.734 42.3 73.734-42.3 73.734-42.306-73.734zm153.96 52.05 21.042-12.144v-24.276l-21.042-12.144-81.125-151.5 171.772-5.49 21.036 12.15 21.024-12.138v-24.294l-21.024-12.138-21.036 12.138-171.772-5.478 81.137-151.5 21.036-12.144v-24.276l-21.036-12.144-21.024 12.138-.012 24.282-90.623 146.016-90.63-146.016-.005-24.288-21.018-12.138-21.042 12.15v24.276l21.036 12.144 81.13 151.5-171.765 5.478-21.043-12.138L85.65 317.85v24.288l21.017 12.144 21.042-12.144 171.765 5.49-81.137 151.5-21.03 12.138-.006 24.282 21.036 12.138 21.03-12.138v-24.282l90.63-146.016 90.628 146.016v24.288l21.024 12.138zm10.65-98.232-42.696-73.5 84.995.234 42.7 73.488-85-.222zm-286.905-73.278 85-.228-42.7 73.494-85.002.234 42.702-73.5zm329.216-92.364-85.006.228 42.702-73.494 84.995-.234-42.69 73.5zM207.7 210.54l42.702 73.5-85-.234-42.703-73.494 85 .228zm164.603-46.182-42.3 73.728-42.3-73.728 42.3-73.734 42.3 73.734z" style="fill: white; fill-rule: nonzero;" />
</svg>

<?xml version="1.0" encoding="UTF-8" standalone="no"?>
<!DOCTYPE svg PUBLIC "-//W3C//DTD SVG 1.1//EN" "http://www.w3.org/Graphics/SVG/1.1/DTD/svg11.dtd">
<svg width="660" height="660" viewBox="0 0 660 660" version="1.1" xmlns="http://www.w3.org/2000/svg" xmlns:xlink="http://www.w3.org/1999/xlink" xml:space="preserve" xmlns:serif="http://www.serif.com/" style="fill-rule:evenodd;clip-rule:evenodd;stroke-linejoin:round;stroke-miterlimit:2;">
    <g transform="matrix(1,0,0,1,30,30)">
        <path d="M300,-30C117.868,-30 -30,117.868 -30,300C-30,482.132 117.868,630 300,630C482.132,630 630,482.132 630,300C630,117.868 482.132,-30 300,-30ZM300,0C465.575,0 600,134.425 600,300C600,465.575 465.575,600 300,600C134.425,600 0,465.575 0,300C0,134.425 134.425,0 300,0Z" style="fill:white;"/>
    </g>
    <path id="polygon491" d="M287.691,495.642L329.997,421.908L372.297,495.642L329.997,569.376L287.691,495.642ZM441.65,547.692L462.692,535.548L462.692,511.272L441.65,499.128L360.525,347.628L532.297,342.138L553.333,354.288L574.357,342.15L574.357,317.856L553.333,305.718L532.297,317.856L360.525,312.378L441.662,160.878L462.698,148.734L462.698,124.458L441.662,112.314L420.638,124.452L420.626,148.734L330.003,294.75L239.374,148.734L239.368,124.446L218.35,112.308L197.308,124.458L197.308,148.734L218.344,160.878L299.475,312.378L127.709,317.856L106.667,305.718L85.649,317.85L85.649,342.138L106.667,354.282L127.709,342.138L299.475,347.628L218.338,499.128L197.308,511.266L197.302,535.548L218.338,547.686L239.368,535.548L239.368,511.266L329.997,365.25L420.626,511.266L420.626,535.554L441.65,547.692ZM452.3,449.46L409.604,375.96L494.599,376.194L537.301,449.682L452.3,449.46ZM165.395,376.182L250.396,375.954L207.694,449.448L122.693,449.682L165.395,376.182ZM494.611,283.818L409.604,284.046L452.306,210.552L537.301,210.318L494.611,283.818ZM207.7,210.54L250.402,284.04L165.401,283.806L122.699,210.312L207.7,210.54ZM372.303,164.358L330.003,238.086L287.703,164.358L330.003,90.624L372.303,164.358Z" style="fill:white;fill-rule:nonzero;"/>
</svg>
